X:SSF 14-19b 05
T:Soldiers' Joy (?)
M:4/4
R:swung
K:D
P:A
FG| AFDF AFDF :|1,4 Adcd B2AG :|2,5 G2F2 E2FG :|3,6 Adcd B2de f2f2 edc2 d4 d2 :|
P:B
e| f2d2 f2d2 :|1,4 edcd e4 :|2,5 edcB A4 :|3,6 edcd e2d2 f2d2 e2c2 d4 d2 :|

% SSF 14-19b 06 = SSF 14-18 54 Hunt The Squirrel, into SSF 14-19b 07 = BFS 14-04 38 Grimstock

% SSF 14-19b 08 = SSF 14-19a 08 Twin Sisters, into SSF 14-19b 09 = SSF 14-19a 09 The Charming Fellow

